X: 28451
T: Mulqueeney's
R: reel
M: 4/4
K: Dmajor
F2 EG FDDE|FDAG FDDE|F2 EG FDDE|FABc dBAG|
F2 EG FDDE|FDAG FD (3FFF|F2 EG FDDE|FABc d2 cd||
e2 {ef}ef efed|cdef g2 fg|e2 {ef}ef efed|cABc d2 cd|
e2 {ef}ef efed|cdef gefg|a~f3 g~e3|dfec dBAG||

